X: 1
T:Fainne Oir Ort
T:Gold Ring, The
M:6/8
Z:There are two unrelated tunes called the Gold Ring, so we gave the Irish
Z:name here.  Really for a fiddle, but it can be faked quite well on other
Z:instruments. (Not really that widely known--introduce it to _your_
Z:session.)  From Ceol Rince na hEireann.
R:jig
K:D
DB,|DA,A, DFA|dfd edA|BdB AFD|EDE FDB,|A,G,A, DFA|dfd edA|BdB AFE|FDD D2:|
B|AFA dfa|bgb afd|gag faf|ede fdB|AFA dfa|bgb afd|BdB AFA|Bdd d2:|
e|dFF AFE|DFE DFA|dfd ede|fdB BAB|dFF AFE|DFE DFA|dfd ede|fdd d2:|
B|AFA dfd|BAB dAF|DEF EDE|FDB, B,BA|AFA dfd|BAB dAF|DEF EDE|FDD D2:|
